X:1
T:Ave Maria
T:Ave Maria
T:S J Shaw
T:Trad
T:Copyright © 2017 by S J Shaw All Rights Reserved
T:Copyright © 2017 by S J Shaw All Rights Reserved
T:Copyright © 2017 by S J Shaw All Rights Reserved
C:S J Shaw
Z:Copyright © 2017 by S J Shaw
Z:All Rights Reserved
%%score 1 2 3 4
L:1/8
Q:1/4=88
M:4/4
K:Ab
V:1 treble 
V:2 treble 
V:3 bass 
V:4 bass 
V:1
"^Adagio""^Sol"!p!!<(! F4 G2!<)! A2 |!>(! G4!>)! C4 |"^Tutt"!<(! A4 c2!<)! c2 |!>(! B4!>)! G4 | %4
w: A- ve Ma-|ri- a|gra- ti- a|ple- na,|
!mp!!<(! (A2 B2) c2 e2!<)! | =d4 (c2 B2) |!<(! A2 B2 c2!<)! e2 | (_d4 c2) c2 | (B4 A2) A2 | %9
w: Do- * mi- nus|te- cum. *|Be- ne- dic- ta|tu * in|mu- * li-|
!>(! G3 G F4!>)! |!p! F4 E2 D2 | C6 C2 | F6 F2 |!<(! F2 G2 A2!<)! c2 | (c2 B2 A4) | A6 z2 | %16
w: er- i- bus,|Et be- ne-|dic- tus|fruc- tus|ven- tris tu- i:|Je- * *|sus.|
!p!!<(! F4 G2!<)! A2 |!>(! G4!>)! C4 |!<(! (A4 c2)!<)! c2 |!>(! B4!>)! G4 | %20
w: San- cta Ma-|ri- a,|Ma- * ter|De- i,|
!mp!!<(! (A2 B2) c2 e2!<)! | =d4 (c2 B2) |!<(! (A2 B2 c2)!<)! e2 | _d3 d c4 | B4 A2 A2 | %25
w: O- * ra pro|no- bis *|pec- * * ca-|tor- i- bus,|Nunc et in|
!>(! G4 F4!>)! | (F4 E2) D2 | C4 C4 |!p! F6"^allarg." F2 | %29
w: ho- ra|mor- * tis|no- strae.|A- men,|
!<(! (F2 G2) A2!<)![Q:1/4=80] (!breath!c2 | c2 B2 A4) | A8 |] %32
w: A- * men, A-||men.|
V:2
!p! z8 | z8 | F4 G2 F2 | F4 =E4 | (F2 =E2) G2 A2 | (B2 F2) G4 | F2 F2 E2 A2 | (A4 G2) G2 | %8
 (F4 F2) F2 | E3 E (E2 D2) | C4 C2 B,2 | B,4 A,4 | C6 E2 | D2 E2 F2 F2 | (A2 G2 F2 D2) | E6 z2 | %16
"^Alt"!p!!<(! F4 G2!<)! A2 |!>(! G4!>)! C4 | (F4 G2) F2 | F4 =E4 | (F2 =E2) G2 A2 | (B2 F2) G4 | %22
 (F4 E2) A2 | A3 A G4 | F4 F2 F2 | E4 (E2 D2) | C6 B,2 | B,4 A,4 | C6 E2 | (D2 E2) F2 (F2 | %30
 A2 G2 F2 D2) | E8 |] %32
V:3
!p! z8 | z8 | C4 C2 C2 | D4 C4 | C4 C2 C2 | (F2 =D2) (F2 =E2) | _E2 _D2 C2 F2 | (G2 F4) =E2 | %8
 (D4 C2) C2 | G,2 A,2 A,4 | (A,2 G,2) F,2 F,2 | G,4 (A,2 G,2) | A,6 A,2 | B,2 B,2 C2 A,2 | %14
 (D4 B,4) | (D4 C2) z2 | z8 | z8 | (C4 C2) C2 | D4 C4 | C4 C2 C2 | (F2 =D2) (F2 =E2) | %22
 (_E2 _D2 C2) F2 | G2 F2 (F2 =E2) | D4 C2 C2 | (G,2 A,2) A,4 | (A,2 G,2 F,2) F,2 | G,4 (A,2 G,2) | %28
 A,6 A,2 | B,4 C2 (A,2 | D4 B,4) | C8 |] %32
V:4
!p! z8 | z8 | F,4 A,2 A,2 | G,4 C,4 | (F,2 G,2) A,2 F,2 | G,4 C,4 | D,2 D,2 A,2 A,2 | %7
 (B,4 C2) C,2 | (D,2 E,2 F,2) A,2 | B,,2 C,2 (D,2 F,2) | A,,4 B,,2 B,,2 | (F,2 =E,2) (F,2 _E,2) | %12
 (D,4 C,2) C,2 | B,,2 C,2 D,2 D,2 | (E,4 A,4) | A,6 z2 | z8 | z8 | (F,4 A,2) A,2 | G,4 C,4 | %20
 (F,2 G,2) A,2 F,2 | G,4 C,4 | (D,4 A,,2) A,,2 | B,,2 B,,2 C,4 | (D,2 E,2) F,2 A,2 | %25
 (B,,2 C,2) (D,2 F,2) | (A,,4 B,,2) B,,2 | (F,2 =E,2) (F,2 _E,2) | (D,4 C,2) C,2 | %29
 (B,,2 C,2) D,2 (D,2 | E,4 A,,4) | A,,8 |] %32

